X:1
T:Be Ready to Go
T:C. C. Williams; arr. by N. W. Allphin, ca. 1908
T:Be Ready to Go
T:Public Domain
T:Public Domain
T:Public Domain
T:Public Domain
C:C. C. Williams; arr. by N. W. Allphin, ca. 1908
Z:Public Domain
%%score ( 1 2 ) ( 3 4 )
L:1/8
M:12/8
K:Ab
V:1 treble 
V:2 treble 
V:3 bass 
V:4 bass 
V:1
 [CA][Ec][DB] [CA] | [Ec][DB][CA] [DB][DA][DF] [DF][CE]A cAA | %2
w: 1.~We’re told in the|Bi- ble that Je- sus is com- ing, Be read- y to|
w: 2.~Then stand you no|long- er in i- dle- ness, bro- ther, Be read- y to|
w: 3.~We know not the|day nor the hour of His com- ing, Be read- y to|
w: 4.~Would you with the|mil- lions re- deemed there be num- bered? Be read- y to|
 (z2 E FF=E [Fc]2) [_EG] [=DB][DA][Dc] | [EB]6- [EB] z [CA] [Ec][DB][CA] | %4
w: * * * * * go, be read- y|go! * * When He shall|
w: * * * * * go, be read- y|go! * * Be watch- ing|
w: * * * * * go, be read- y|go! * * Re- ward He|
w: * * * * * go, be read- y|go! * * Then slight not|
 [Ec][DB][CA] [DB][DA][DF] [DF][CE]A ceA | (z2 E FF=E [Fc]2) [=DA] [_EB][CA][_DB] | [CA]6- [CA]2 || %7
w: de- scend from the por- tals of glor- y, Be read- y|* * * * * to go, be read-||
w: and wait- ing His com- ing to wel- come, Be read- y|* * * * * to go, be read-||
w: has prom- ised to all who are faith- ful, Be read- y|* * * * * to go, be read-||
w: His call, nor re- ject thou His mer- cy, Be read- y|* * * * * to go, be read-||
"^Refrain" Ace e (z2 AGA B [Ae]2) [_Gc][FB][FA][FA] | [DF] [CE]4- [CE]3 | GcA A | %10
w: to go! * * * * * * * * * * *|||
w: to go! Be read- * * * * * y to go, for|He is *|com- ing! That day|
w: to go! * * * * * * * * * * *|||
w: to go! * * * * * * * * * * *|||
 (z2 E FF=E [Fc]2) [_EG] [=DB][DA][Dc] | (E2 E =DDD [EB]2) A cee | (z2 A GAB [Ae]2) [_Gc] | %13
w: |||
w: * * * * * may be near, be|y * * * * * to * go, Be|* * * * * y|
w: |||
w: |||
 [FB][FA][FA] | [DF] [CE]4- [CE]3 A ceA | (z2 E FF=E [Fc]2) [=DA] [_EB][CA][_DB] | %16
w: |||
w: go with all|the re- * deemed ones! When He|* * * * * shall ap- pear, be|
w: |||
w: |||
 (C2 E =DEF [EA]2) |] %17
w: |
w: |
w: |
w: |
V:2
 x4 | x12 | c3- c3- x6 | x12 | x12 | (c3- c3-) x6 | x8 || x4 e3- e3- x6 | x8 | x4 | (c3- c3-) x6 | %11
w: ||to *|||y *||||||
w: ||to *|||y *||sure *|||read- *|
w: ||to *|||y *||||||
w: ||to *|||y *||||||
 B3- B3- x6 | (e3- e3-) x3 | x3 | x12 | (c3- c3-) x6 | A3- A3- x2 |] %17
w: ||||||
w: read- *|to *|||read- *|y *|
w: ||||||
w: ||||||
V:3
 [A,,E,][A,,A,][A,,E,] [A,,E,] | [A,,A,][A,,E,][A,,E,] [D,F,][D,F,][D,A,] [A,,A,][A,,A,] z z3 | %2
w: ~ ~ ~ ~|~ ~ ~ ~ ~ ~ ~ ~|
 z2 A, [F,A,][F,A,][C,G,] [F,A,]2 [C,A,] [B,,G,][B,,F,][B,,A,] | %3
w: ~ ~ ~ ~ ~ ~ ~ ~ ~|
 [E,G,]6- [E,G,] z [A,,E,] [A,,A,][A,,E,][A,,E,] | %4
w: ~ * ~ ~ ~ ~|
 [A,,A,][A,,E,][A,,E,] [D,F,][D,F,][D,A,] [A,,A,][A,,A,] z4 | %5
w: ~ ~ ~ ~ ~ ~ ~ ~|
 z2 A, [F,A,][F,A,][C,G,] [F,A,]2 [_F,A,] [E,G,][E,A,][E,G,] | [A,,E,]6- [A,,E,]2 || %7
w: ~ ~ ~ ~ ~ ~ ~ ~ ~|read- *|
 z6 [A,C][E,B,][E,C] [E,D] [A,C]2 [A,E][D,D][D,D][D,A,] | %8
w: y to go, ~ ~ ~ ~ ~ ~|
 [A,,A,][A,,A,][A,,A,] [A,,A,][C,A,][E,A,] A,2 | z4 | %10
w: He’s com- ing a- gain! That day||
 z2 A, [F,A,][F,A,][C,G,] [F,A,]2 [C,A,] [B,,G,][B,,F,][F,A,] | %11
w: be near, ~ ~ ~ ~ ~ be read-|
 [E,G,]2 [E,G,] [B,,A,][B,,A,][B,,A,] [E,G,]2 z4 | z2 [A,C] [E,B,][E,C][E,D] [A,C]2 [A,E] | %13
w: to go, Be read- y to|go, ~ ~ ~ ~ ~|
 [D,D][D,D][D,A,] | [A,,A,][A,,A,][A,,A,] [A,,A,][C,A,][E,A,] A,2 z4 | %15
w: ~ In glor-|y to reign! When He shall ap-|
 z2 A, [F,A,][F,A,][C,G,] [F,A,]2 [_F,A,] [E,G,][E,A,][E,G,] | A,2 C =B,CD [A,,C]2 |] %17
w: ~ ~ ~ ~ ~ be~ready to go! *||
V:4
 x4 | x12 | x2 A, x9 | x12 | x12 | x2 A, x9 | x8 || x16 | x6 A,2 | x4 | x2 A, x9 | x12 | x9 | x3 | %14
w: ||~|||Be|||may||y||||
 x6 A,2 x4 | x2 A, x9 | A,,3- A,,3- x2 |] %17
w: pear|||

